img/clients/logohtmlacademy.svg

<svg width="199" height="68" viewBox="0 0 199 68" fill="none" xmlns="http://www.w3.org/2000/svg">
<g opacity="0.2">
<path d="M82.1427 49.4881C82.4919 49.4881 82.8412 49.3834 83.1555 49.3135V51.7582C82.5269 52.0027 81.7585 52.1424 80.9902 52.1424C79.5932 52.1424 78.4756 51.5836 77.9168 50.3612C76.4151 51.5836 74.5291 52.3519 72.1193 52.3519C69.3254 52.3519 66.741 50.8153 66.741 47.6371C66.741 43.6907 70.3731 42.5032 73.5862 42.5032C74.9133 42.5032 76.3801 42.6778 77.5676 42.9572V42.3985C77.5676 40.4776 76.1706 39.1505 73.5513 39.1505C71.2812 39.1505 69.3952 39.7093 68.0332 40.3379V37.1947C69.2555 36.7756 71.4558 36.1819 73.9005 36.1819C78.2311 36.1819 80.9902 38.2424 80.9902 42.8874V48.3705C81.0251 49.2087 81.514 49.4881 82.1427 49.4881ZM70.2683 47.3927C70.2683 48.8944 71.5955 49.6628 73.1322 49.6628C74.7736 49.6628 76.3452 49.069 77.5676 47.8467V45.2623C76.6246 45.0876 75.3324 44.8781 74.2497 44.8781C72.3289 44.8781 70.2683 45.4718 70.2683 47.3927Z" fill="black"/>
<path d="M93.0392 36.1469C94.7505 36.1469 96.4269 36.531 97.754 37.3343V40.4775C96.6365 39.6742 95.0649 39.1853 93.4932 39.1853C90.7691 39.1853 88.045 40.6172 88.045 44.2493C88.045 47.7418 90.6993 49.3134 93.4583 49.3134C95.0998 49.3134 96.7063 48.8245 97.9287 48.126V51.3041C96.4618 52.0026 94.7855 52.3518 92.8646 52.3518C88.7784 52.3518 84.5875 49.8722 84.5875 44.389C84.5526 38.6265 88.9531 36.1469 93.0392 36.1469Z" fill="black"/>
<path d="M115.426 49.4881C115.775 49.4881 116.124 49.3834 116.439 49.3135V51.7582C115.81 52.0027 115.042 52.1424 114.273 52.1424C112.876 52.1424 111.759 51.5836 111.2 50.3612C109.698 51.5836 107.812 52.3519 105.402 52.3519C102.608 52.3519 100.024 50.8153 100.024 47.6371C100.024 43.6907 103.656 42.5032 106.869 42.5032C108.196 42.5032 109.663 42.6778 110.851 42.9572V42.3985C110.851 40.4776 109.454 39.1505 106.834 39.1505C104.564 39.1505 102.678 39.7093 101.316 40.3379V37.1947C102.539 36.7756 104.739 36.1819 107.184 36.1819C111.514 36.1819 114.273 38.2424 114.273 42.8874V48.3705C114.308 49.2087 114.832 49.4881 115.426 49.4881ZM103.586 47.3927C103.586 48.8944 104.913 49.6628 106.45 49.6628C108.092 49.6628 109.663 49.069 110.886 47.8467V45.2623C109.943 45.0876 108.65 44.8781 107.568 44.8781C105.612 44.8781 103.586 45.4718 103.586 47.3927Z" fill="black"/>
<path d="M134.425 29.5112V51.8979H131.352V49.4531C130.164 50.9549 128.348 52.282 125.484 52.282C120.839 52.282 117.871 48.615 117.871 44.1795C117.871 39.779 120.839 36.077 125.484 36.077C128.173 36.077 129.955 37.2645 131.002 38.4868V29.5112H134.425ZM126.078 39.1504C123.319 39.1504 121.328 41.2109 121.328 44.2494C121.328 47.2529 123.354 49.3134 126.078 49.3134C128.488 49.3134 130.234 47.7768 130.967 46.1004V42.3635C130.234 40.6871 128.488 39.1504 126.078 39.1504Z" fill="black"/>
<path d="M145.496 36.1469C151.608 36.1469 153.703 41.0712 152.725 45.5066H141.2C141.584 48.2657 144.273 49.4182 147.067 49.4182C148.918 49.4182 150.63 48.9642 151.922 48.3355V51.2692C150.525 51.9327 148.569 52.3169 146.439 52.3169C141.724 52.3169 137.742 49.6277 137.742 44.2144C137.742 38.6614 141.968 36.1469 145.496 36.1469ZM145.67 38.9757C143.365 38.9757 141.305 40.3378 141.165 42.9222H149.652C149.861 41.5951 149.023 38.9757 145.67 38.9757Z" fill="black"/>
<path d="M156.218 51.8978V36.5659H159.256V38.4868C160.094 37.5438 161.875 36.1469 164.355 36.1469C166.66 36.1469 168.267 37.0898 169.14 38.5916C170.467 37.2644 172.283 36.1469 174.518 36.1469C178.569 36.1469 180.351 39.1504 180.351 42.3285V51.9327H176.928V42.4333C176.928 40.4426 175.74 39.2202 173.889 39.2202C172.213 39.2202 170.886 40.3378 170.083 41.2808C170.118 41.63 170.153 41.9792 170.153 42.3285V51.9327H166.73V42.4333C166.73 40.4426 165.543 39.2202 163.692 39.2202C161.841 39.2202 160.444 40.5473 159.64 41.5951V51.9327H156.218V51.8978Z" fill="black"/>
<path d="M195.438 36.5659H199L191.806 53.9933C190.129 57.9747 187.964 59.3367 185.624 59.3367C184.961 59.3367 184.297 59.2319 183.598 59.0922V56.1935C184.122 56.3681 184.646 56.4031 185.17 56.4031C186.846 56.4031 188.069 55.2156 188.977 52.8408L189.291 52.0724L181.992 36.6008H185.624L190.793 48.1609L195.438 36.5659Z" fill="black"/>
<path d="M71.281 2.6543V11.3854C72.3986 10.2329 74.1448 9.28996 76.2403 9.28996C80.1169 9.28996 82.5616 11.9093 82.5616 15.5415V25.0409H79.139V15.9955C79.139 13.5158 77.6023 12.3284 75.5767 12.3284C73.6209 12.3284 72.1541 13.6555 71.281 14.8779V25.0409H67.8584V2.6543H71.281Z" fill="black"/>
<path d="M91.9213 4.22595V9.67418H97.4743V12.6777H91.9213V19.6975C91.9213 21.7231 92.8642 22.3867 94.82 22.3867C95.9376 22.3867 96.9504 22.1772 97.9283 21.793V24.7267C96.7758 25.1458 95.3089 25.3902 93.8072 25.3902C90.8386 25.3902 88.5336 23.9234 88.5336 20.3262V12.6428H85.7745V9.63926H88.5336V5.06414L91.9213 4.22595Z" fill="black"/>
<path d="M101.875 25.0409V9.70901H104.913V11.6299C105.752 10.6869 107.533 9.28992 110.012 9.28992C112.317 9.28992 113.924 10.2329 114.797 11.7346C116.124 10.4075 117.94 9.28992 120.175 9.28992C124.227 9.28992 126.008 12.2934 126.008 15.4716V25.0758H122.585V15.5414C122.585 13.5507 121.398 12.3284 119.547 12.3284C117.87 12.3284 116.543 13.4459 115.74 14.3889C115.775 14.7381 115.81 15.0874 115.81 15.4366V25.0409H112.387V15.5414C112.387 13.5507 111.2 12.3284 109.349 12.3284C107.498 12.3284 106.101 13.6555 105.298 14.7032V25.0409H101.875Z" fill="black"/>
<path d="M134.424 2.6543H131.002V25.0409H134.424V2.6543Z" fill="black"/>
<path d="M27.0665 0.0349245L26.7871 0L0 2.79396V51.8979L26.7871 67.8234L53.5742 51.8979V2.79396L27.0665 0.0349245ZM50.0818 49.9072L26.7871 63.7722L3.49245 49.9072V29.7906L26.6823 43.5858L26.7173 46.1004L10.8266 36.6358L10.7917 39.0806L26.7522 48.6848L26.7871 51.2343L10.8266 41.6999L10.7917 44.1446L26.7522 53.7489L42.8873 44.1097V41.665H42.8524V40.8268V39.814V33.7371L50.0469 29.4414V49.9072H50.0818ZM50.0469 26.822L43.6906 30.559L40.7569 32.3052L26.7173 23.9932L26.6823 26.4379L38.6615 33.5276L38.5567 33.5974L38.3122 33.7371L36.6009 34.7499L26.7173 28.8826L26.6823 31.3273L34.5054 35.9723L32.6544 37.1946L32.6195 37.2296L26.7173 33.7371L26.6823 36.1818L30.559 38.4519L26.6125 40.8268L3.5623 27.1014L26.6474 13.2015L50.0469 26.822ZM50.0818 24.4123L26.6823 10.6171L3.49245 24.3773V5.9721L26.7871 3.52738L50.0818 5.9721V24.4123Z" fill="black"/>
</g>
</svg>

<svg width="199" height="68" fill="none" xmlns="http://www.w3.org/2000/svg"><g opacity=".2" fill="#000"><path d="M82.143 49.488c.349 0 .698-.105 1.013-.175v2.445a6.123 6.123 0 01-2.166.384c-1.397 0-2.514-.558-3.073-1.78-1.502 1.222-3.388 1.99-5.798 1.99-2.794 0-5.378-1.537-5.378-4.715 0-3.946 3.632-5.134 6.845-5.134 1.327 0 2.794.175 3.982.454v-.559c0-1.92-1.397-3.248-4.017-3.248-2.27 0-4.156.56-5.518 1.188v-3.143c1.222-.42 3.423-1.013 5.867-1.013 4.331 0 7.09 2.06 7.09 6.705v5.483c.035.839.524 1.118 1.153 1.118zm-11.875-2.095c0 1.501 1.328 2.27 2.864 2.27 1.642 0 3.213-.594 4.436-1.816v-2.585c-.943-.174-2.236-.384-3.318-.384-1.921 0-3.982.594-3.982 2.515zM93.04 36.147c1.71 0 3.387.384 4.714 1.187v3.143c-1.118-.803-2.69-1.292-4.26-1.292-2.725 0-5.449 1.432-5.449 5.064 0 3.493 2.654 5.064 5.413 5.064a9.247 9.247 0 004.47-1.187v3.178c-1.466.699-3.142 1.048-5.063 1.048-4.087 0-8.277-2.48-8.277-7.963-.035-5.763 4.365-8.242 8.451-8.242zM115.426 49.488c.349 0 .698-.105 1.013-.175v2.445a6.126 6.126 0 01-2.166.384c-1.397 0-2.514-.558-3.073-1.78-1.502 1.222-3.388 1.99-5.798 1.99-2.794 0-5.378-1.537-5.378-4.715 0-3.946 3.632-5.134 6.845-5.134a18.3 18.3 0 013.982.454v-.559c0-1.92-1.397-3.248-4.017-3.248-2.27 0-4.156.56-5.518 1.188v-3.143c1.223-.42 3.423-1.013 5.868-1.013 4.33 0 7.089 2.06 7.089 6.705v5.483c.035.839.559 1.118 1.153 1.118zm-11.84-2.095c0 1.501 1.327 2.27 2.864 2.27 1.642 0 3.213-.594 4.436-1.816v-2.585c-.943-.174-2.236-.384-3.318-.384-1.956 0-3.982.594-3.982 2.515zM134.425 29.511v22.387h-3.073v-2.445c-1.188 1.502-3.004 2.829-5.868 2.829-4.645 0-7.613-3.667-7.613-8.102 0-4.401 2.968-8.103 7.613-8.103 2.689 0 4.471 1.188 5.518 2.41V29.51h3.423zm-8.347 9.64c-2.759 0-4.75 2.06-4.75 5.098 0 3.004 2.026 5.064 4.75 5.064 2.41 0 4.156-1.536 4.889-3.213v-3.736c-.733-1.677-2.479-3.214-4.889-3.214zM145.496 36.147c6.112 0 8.207 4.924 7.229 9.36H141.2c.384 2.759 3.073 3.911 5.867 3.911 1.851 0 3.563-.454 4.855-1.082v2.933c-1.397.664-3.353 1.048-5.483 1.048-4.715 0-8.697-2.69-8.697-8.103 0-5.553 4.226-8.067 7.754-8.067zm.174 2.829c-2.305 0-4.365 1.362-4.505 3.946h8.487c.209-1.327-.629-3.946-3.982-3.946zM156.218 51.898V36.566h3.038v1.92c.838-.942 2.619-2.34 5.099-2.34 2.305 0 3.912.944 4.785 2.446 1.327-1.328 3.143-2.445 5.378-2.445 4.051 0 5.833 3.003 5.833 6.181v9.605h-3.423v-9.5c0-1.99-1.188-3.213-3.039-3.213-1.676 0-3.003 1.118-3.806 2.06.035.35.07.7.07 1.048v9.605h-3.423v-9.5c0-1.99-1.187-3.213-3.038-3.213-1.851 0-3.248 1.327-4.052 2.375v10.338h-3.422v-.035zM195.438 36.566H199l-7.194 17.427c-1.677 3.982-3.842 5.344-6.182 5.344-.663 0-1.327-.105-2.026-.245v-2.898c.524.174 1.048.21 1.572.21 1.676 0 2.899-1.188 3.807-3.563l.314-.769-7.299-15.471h3.632l5.169 11.56 4.645-11.595zM71.281 2.654v8.731a6.945 6.945 0 014.96-2.095c3.876 0 6.32 2.62 6.32 6.252v9.499H79.14v-9.046c0-2.48-1.537-3.667-3.562-3.667-1.956 0-3.423 1.328-4.296 2.55V25.04h-3.423V2.654h3.423zM91.921 4.226v5.448h5.553v3.004h-5.553v7.02c0 2.025.943 2.689 2.899 2.689 1.118 0 2.13-.21 3.108-.594v2.934c-1.152.419-2.62.663-4.12.663-2.97 0-5.274-1.467-5.274-5.064v-7.683h-2.76V9.639h2.76V5.064l3.387-.838zM101.875 25.04V9.71h3.038v1.92c.839-.942 2.62-2.34 5.099-2.34 2.305 0 3.912.944 4.785 2.446 1.327-1.327 3.143-2.445 5.378-2.445 4.052 0 5.833 3.003 5.833 6.182v9.604h-3.423V15.54c0-1.99-1.187-3.213-3.038-3.213-1.677 0-3.004 1.118-3.807 2.06.035.35.07.7.07 1.049v9.604h-3.423v-9.5c0-1.99-1.187-3.213-3.038-3.213-1.851 0-3.248 1.328-4.051 2.375v10.338h-3.423zM134.424 2.654h-3.422v22.387h3.422V2.654zM27.067.035L26.787 0 0 2.794v49.104l26.787 15.925 26.787-15.925V2.794L27.067.034zm23.015 49.872L26.787 63.772 3.492 49.907V29.791l23.19 13.795.035 2.514-15.89-9.464-.035 2.445 15.96 9.604.035 2.55-15.96-9.535-.035 2.445 15.96 9.604 16.135-9.64v-2.444h-.035v-7.928l7.195-4.296v20.466h.035zm-.035-23.085l-6.356 3.737-2.934 1.746-14.04-8.312-.035 2.445 11.98 7.09-.105.07-.245.14-1.711 1.012-9.884-5.867-.035 2.444 7.823 4.645-1.85 1.223-.035.035-5.903-3.493-.035 2.445 3.877 2.27-3.947 2.375L3.563 27.1l23.085-13.9 23.4 13.621zm.035-2.41l-23.4-13.795-23.19 13.76V5.972l23.295-2.445 23.295 2.445v18.44z"/></g></svg>
